packages/webapp/public/images/template-logos/zoom.svg

<svg width="62" height="62" viewBox="0 0 62 62" fill="none" xmlns="http://www.w3.org/2000/svg">
<mask id="mask0_496_1454" style="mask-type:luminance" maskUnits="userSpaceOnUse" x="9" y="9" width="44" height="44">
<path d="M31 53C43.1503 53 53 43.1503 53 31C53 18.8497 43.1503 9 31 9C18.8497 9 9 18.8497 9 31C9 43.1503 18.8497 53 31 53Z" fill="white"/>
</mask>
<g mask="url(#mask0_496_1454)">
<path d="M7.92163 7.9209H54.0785V54.0778H7.92163V7.9209Z" fill="#E5E5E4"/>
</g>
<mask id="mask1_496_1454" style="mask-type:luminance" maskUnits="userSpaceOnUse" x="9" y="9" width="44" height="44">
<path d="M31 52.5699C42.912 52.5699 52.5686 42.9133 52.5686 31.0012C52.5686 19.0892 42.912 9.43262 31 9.43262C19.088 9.43262 9.4314 19.0892 9.4314 31.0012C9.4314 42.9133 19.088 52.5699 31 52.5699Z" fill="white"/>
</mask>
<g mask="url(#mask1_496_1454)">
<path d="M8.35278 8.35254H53.6469V53.6466H8.35278V8.35254Z" fill="white"/>
</g>
<mask id="mask2_496_1454" style="mask-type:luminance" maskUnits="userSpaceOnUse" x="11" y="11" width="40" height="40">
<path d="M31.0001 50.8445C41.9592 50.8445 50.8433 41.9604 50.8433 31.0013C50.8433 20.0423 41.9592 11.1582 31.0001 11.1582C20.0411 11.1582 11.157 20.0423 11.157 31.0013C11.157 41.9604 20.0411 50.8445 31.0001 50.8445Z" fill="white"/>
</mask>
<g mask="url(#mask2_496_1454)">
<path d="M10.0784 10.0801H51.9215V51.9232H10.0784V10.0801Z" fill="#4A8CFF"/>
</g>
<mask id="mask3_496_1454" style="mask-type:luminance" maskUnits="userSpaceOnUse" x="18" y="24" width="26" height="14">
<path d="M37.0395 28.4272L42.6473 24.3292C43.1369 23.9301 43.5101 24.0229 43.5101 24.7605V37.2574C43.5101 38.0856 43.0442 37.9907 42.6473 37.6888L37.0395 33.5907V28.4272ZM18.0591 24.7907V34.1084C18.0642 35.1199 18.4708 36.0881 19.1896 36.7999C19.9083 37.5117 20.8803 37.909 21.8918 37.9045H35.4801C35.6639 37.905 35.8404 37.8327 35.971 37.7033C36.1016 37.574 36.1756 37.3981 36.1767 37.2143V27.8966C36.1716 26.8851 35.765 25.9169 35.0462 25.2051C34.3275 24.4932 33.3555 24.0959 32.344 24.1005H18.7557C18.5719 24.1 18.3954 24.1723 18.2648 24.3017C18.1342 24.431 18.0602 24.6069 18.0591 24.7907Z" fill="white"/>
</mask>
<g mask="url(#mask3_496_1454)">
<path d="M16.9805 23.0215H44.5883V38.9823H16.9805V23.0215Z" fill="white"/>
</g>
</svg>

<svg xmlns="http://www.w3.org/2000/svg" width="62" height="62" fill="none"><mask id="A" maskUnits="userSpaceOnUse" x="9" y="9" width="44" height="44"><path d="M31 53c12.15 0 22-9.85 22-22S43.15 9 31 9 9 18.85 9 31s9.85 22 22 22z" fill="#fff"/></mask><g mask="url(#A)"><path d="M7.922 7.921h46.157v46.157H7.922V7.921z" fill="#e5e5e4"/></g><mask id="B" maskUnits="userSpaceOnUse" x="9" y="9" width="44" height="44"><path d="M31 52.57c11.912 0 21.569-9.657 21.569-21.569S42.912 9.433 31 9.433 9.431 19.089 9.431 31.001 19.088 52.57 31 52.57z" fill="#fff"/></mask><g mask="url(#B)"><path d="M8.353 8.353h45.294v45.294H8.353V8.353z" fill="#fff"/></g><mask id="C" maskUnits="userSpaceOnUse" x="11" y="11" width="40" height="40"><path d="M31 50.845c10.959 0 19.843-8.884 19.843-19.843S41.959 11.158 31 11.158s-19.843 8.884-19.843 19.843S20.041 50.845 31 50.845z" fill="#fff"/></mask><g mask="url(#C)"><path d="M10.079 10.08h41.843v41.843H10.079V10.08z" fill="#4a8cff"/></g><mask id="D" maskUnits="userSpaceOnUse" x="18" y="24" width="26" height="14"><path d="M37.039 28.427l5.608-4.098c.49-.399.863-.306.863.431v12.497c0 .828-.466.733-.863.431l-5.608-4.098v-5.163zm-18.98-3.636v9.318c.005 1.011.412 1.98 1.13 2.691s1.691 1.109 2.702 1.105H35.48c.184.001.36-.072.491-.201s.205-.305.206-.489v-9.318c-.005-1.011-.412-1.98-1.13-2.691s-1.691-1.109-2.702-1.105H18.756c-.184 0-.36.072-.491.201s-.205.305-.206.489z" fill="#fff"/></mask><g mask="url(#D)"><path d="M16.981 23.022h27.608v15.961H16.981V23.022z" fill="#fff"/></g></svg>
